dist/svgs/unicons/line/browser.svg

<svg xmlns="http://www.w3.org/2000/svg" viewBox="0 0 24 24"><path d="M19 2H9a3 3 0 00-3 3v1H5a3 3 0 00-3 3v10a3 3 0 003 3h10a3 3 0 003-3v-1h1a3 3 0 003-3V5a3 3 0 00-3-3zm-3 17a1 1 0 01-1 1H5a1 1 0 01-1-1v-7h12zm0-9H4V9a1 1 0 011-1h10a1 1 0 011 1zm4 5a1 1 0 01-1 1h-1V9a3 3 0 00-.18-1H20zm0-9H8V5a1 1 0 011-1h10a1 1 0 011 1z"/></svg>

<svg xmlns="http://www.w3.org/2000/svg" viewBox="0 0 24 24"><path d="M19,2H9A3,3,0,0,0,6,5V6H5A3,3,0,0,0,2,9V19a3,3,0,0,0,3,3H15a3,3,0,0,0,3-3V18h1a3,3,0,0,0,3-3V5A3,3,0,0,0,19,2ZM16,19a1,1,0,0,1-1,1H5a1,1,0,0,1-1-1V12H16Zm0-9H4V9A1,1,0,0,1,5,8H15a1,1,0,0,1,1,1Zm4,5a1,1,0,0,1-1,1H18V9a3,3,0,0,0-.18-1H20Zm0-9H8V5A1,1,0,0,1,9,4H19a1,1,0,0,1,1,1Z"/></svg>
